Catalina-dark/actions/22/chronometer-reset.svg

<svg xmlns="http://www.w3.org/2000/svg" viewBox="0 0 22 22">
  <defs id="defs3051">
    <style type="text/css" id="current-color-scheme">
      .ColorScheme-Text {
        color:#f2f2f2
      }
      </style>
  </defs>
 <path 
     style="fill:currentColor;fill-opacity:1;stroke:none"      
	 class="ColorScheme-Text"
        d="M 9.3691406 3 C 9.1158928 3 8.9082031 3.2035431 8.9082031 3.4609375 L 8.9082031 3.8417969 C 8.9082031 4.0988245 9.1158928 4.3066406 9.3691406 4.3066406 L 9.5292969 4.3066406 L 9.5292969 4.5742188 C 9.5295507 4.9603244 9.774148 4.9925834 9.8964844 4.984375 C 9.9172734 4.9813004 9.938174 4.977543 9.9609375 4.9746094 C 9.9611914 4.9746094 9.9648438 4.9746094 9.9648438 4.9746094 C 10.399156 4.9151478 11.118259 4.8579019 11.943359 4.9628906 C 11.943359 4.9628906 12.472142 5.0602921 12.470703 4.5742188 L 12.470703 4.3046875 L 12.632812 4.3046875 C 12.886314 4.3046875 13.091797 4.0991912 13.091797 3.8417969 L 13.091797 3.4609375 C 13.091769 3.2037688 12.884361 3 12.630859 3 L 9.3691406 3 z M 14.609375 4.7011719 C 14.566707 4.7097822 14.533989 4.7367691 14.511719 4.7617188 L 14.474609 4.8144531 L 14.160156 5.265625 C 14.158661 5.2673457 13.981314 5.5460593 14.263672 5.6933594 C 14.6669 5.8917998 15.406349 6.3108689 16.115234 6.9863281 L 16.115234 6.984375 C 16.115234 6.984375 16.36971 7.2411838 16.548828 6.9863281 L 16.890625 6.4960938 C 17.009802 6.3239428 16.855781 6.2051219 16.839844 6.1933594 L 14.769531 4.7460938 L 14.767578 4.7460938 C 14.703829 4.7017373 14.652043 4.6925615 14.609375 4.7011719 z M 11 5.5625 C 7.2895723 5.5625 4.28125 8.5704838 4.28125 12.28125 C 4.28125 15.991085 7.2895441 19 11 19 C 14.710399 19 17.71875 15.991057 17.71875 12.28125 C 17.71875 8.5704838 14.710399 5.5625 11 5.5625 z M 11.099609 8.5 C 11.641262 8.5 12.159276 8.6065057 12.652344 8.8183594 C 13.145476 9.030213 13.570064 9.3142681 13.927734 9.671875 C 14.285341 10.029482 14.571477 10.454198 14.783203 10.947266 C 14.994993 11.440334 15.099609 11.958284 15.099609 12.5 C 15.099609 13.041588 14.994993 13.559666 14.783203 14.052734 C 14.571349 14.545802 14.285341 14.97039 13.927734 15.328125 C 13.57 15.685668 13.145412 15.969851 12.652344 16.181641 C 12.159276 16.39343 11.641262 16.5 11.099609 16.5 C 10.502405 16.5 9.9346847 16.374727 9.3964844 16.123047 C 8.8582841 15.871367 8.3999954 15.514996 8.0214844 15.056641 C 7.9971922 15.021928 7.9865552 14.982923 7.9882812 14.939453 C 7.9900074 14.896047 8.0054589 14.861856 8.0332031 14.833984 L 8.7460938 14.115234 C 8.780806 14.083974 8.8248527 14.068359 8.8769531 14.068359 C 8.9325056 14.075327 8.9718014 14.096147 8.9960938 14.130859 C 9.2495638 14.460786 9.5597074 14.715955 9.9277344 14.896484 C 10.295825 15.077014 10.686386 15.166016 11.099609 15.166016 C 11.460668 15.166016 11.806629 15.095717 12.134766 14.955078 C 12.462838 14.814503 12.74673 14.624364 12.986328 14.384766 C 13.225926 14.145168 13.416002 13.86134 13.556641 13.533203 C 13.697216 13.205067 13.767578 12.861187 13.767578 12.5 C 13.767578 12.138813 13.697216 11.794933 13.556641 11.466797 C 13.416002 11.13866 13.225926 10.854768 12.986328 10.615234 C 12.74673 10.375636 12.462902 10.185561 12.134766 10.044922 C 11.806629 9.9043466 11.460732 9.8339844 11.099609 9.8339844 C 10.759327 9.8339844 10.433632 9.8943272 10.121094 10.017578 C 9.8086189 10.140893 9.5302233 10.317697 9.2871094 10.546875 L 10.001953 11.265625 C 10.109606 11.369826 10.133223 11.489603 10.074219 11.625 C 10.015214 11.763913 9.9134592 11.833984 9.7675781 11.833984 L 7.4335938 11.833984 C 7.3433289 11.833984 7.2652552 11.800348 7.1992188 11.734375 C 7.1332461 11.668402 7.0996094 11.590265 7.0996094 11.5 L 7.0996094 9.1660156 C 7.0996094 9.0201984 7.1696806 8.9184434 7.3085938 8.859375 C 7.4440548 8.8003705 7.5637679 8.8239878 7.6679688 8.9316406 L 8.3457031 9.6035156 C 8.7172461 9.2528128 9.1417348 8.981802 9.6191406 8.7890625 C 10.09661 8.596323 10.589217 8.5 11.099609 8.5 z "
     />
</svg>

<svg viewBox="0 0 22 22" xmlns="http://www.w3.org/2000/svg">
<defs>
<style id="current-color-scheme" type="text/css">.ColorScheme-Text {
        color:#dedede
      }</style>
</defs>
<path class="ColorScheme-Text" d="m9.3691 3c-0.25325 0-0.46094 0.20354-0.46094 0.46094v0.38086c0 0.25703 0.20769 0.46484 0.46094 0.46484h0.16016v0.26758c2.538e-4 0.38611 0.24485 0.41836 0.36719 0.41016 0.020789-0.0030746 0.04169-0.006832 0.064453-0.0097656h0.0039063c0.43431-0.059462 1.1534-0.11671 1.9785-0.011719 0 0 0.52878 0.097402 0.52734-0.38867v-0.26953h0.16211c0.2535 0 0.45898-0.2055 0.45898-0.46289v-0.38086c-2.8e-5 -0.25717-0.20744-0.46094-0.46094-0.46094h-3.2617zm5.2402 1.7012c-0.042668 0.0086103-0.075386 0.035597-0.097656 0.060547l-0.03711 0.052734-0.31445 0.45117c-0.001495 0.0017207-0.17884 0.28043 0.10352 0.42773 0.40323 0.19844 1.1427 0.61751 1.8516 1.293v-0.0019531s0.25448 0.25681 0.43359 0.0019531l0.3418-0.49023c0.11918-0.17215-0.034844-0.29097-0.050781-0.30273l-2.0703-1.4473h-0.001953c-0.063749-0.044356-0.11554-0.053532-0.1582-0.044922zm-3.6094 0.86133c-3.7104 0-6.7188 3.008-6.7188 6.7188 0 3.7098 3.0083 6.7188 6.7188 6.7188 3.7104 0 6.7188-3.0089 6.7188-6.7188 0-3.7108-3.0084-6.7188-6.7188-6.7188zm0.099609 2.9375c0.54165 0 1.0597 0.10651 1.5527 0.31836 0.49313 0.21185 0.91772 0.49591 1.2754 0.85352 0.35761 0.35761 0.64374 0.78232 0.85547 1.2754 0.21179 0.49307 0.31641 1.011 0.31641 1.5527 0 0.54159-0.10462 1.0597-0.31641 1.5527-0.21185 0.49307-0.49786 0.91766-0.85547 1.2754-0.35773 0.35754-0.78232 0.64173-1.2754 0.85352-0.49307 0.21179-1.0111 0.31836-1.5527 0.31836-0.5972 0-1.1649-0.12527-1.7031-0.37695s-0.99649-0.60805-1.375-1.0664c-0.024292-0.034713-0.034929-0.073718-0.033203-0.11719 0.0017262-0.043406 0.017178-0.077597 0.044922-0.10547l0.71289-0.71875c0.034712-0.03126 0.078759-0.046875 0.13086-0.046875 0.055552 0.006968 0.094848 0.027788 0.11914 0.0625 0.25347 0.32993 0.56361 0.5851 0.93164 0.76562 0.36809 0.18053 0.75865 0.26953 1.1719 0.26953 0.36106 0 0.70702-0.070299 1.0352-0.21094 0.32807-0.14058 0.61196-0.33071 0.85156-0.57031s0.42967-0.52343 0.57031-0.85156c0.14058-0.32814 0.21094-0.67202 0.21094-1.0332s-0.070362-0.70507-0.21094-1.0332c-0.14064-0.32814-0.33072-0.61203-0.57031-0.85156-0.2396-0.2396-0.52343-0.42967-0.85156-0.57031-0.32814-0.14058-0.67403-0.21094-1.0352-0.21094-0.34028 0-0.66598 0.060343-0.97852 0.18359-0.31248 0.12332-0.59087 0.30012-0.83398 0.5293l0.71484 0.71875c0.10765 0.1042 0.13127 0.22398 0.072266 0.35938-0.059005 0.13891-0.16076 0.20898-0.30664 0.20898h-2.334c-0.090265 0-0.16834-0.033636-0.23438-0.099609-0.065973-0.065973-0.099609-0.14411-0.099609-0.23438v-2.334c0-0.14582 0.070071-0.24757 0.20898-0.30664 0.13546-0.059004 0.25517-0.035387 0.35938 0.072266l0.67773 0.67188c0.37154-0.3507 0.79603-0.62171 1.2734-0.81445 0.47747-0.19274 0.97008-0.28906 1.4805-0.28906z" fill="currentColor"/>
</svg>
